icons/mini/forward.svg

<svg width="20" height="20" viewBox="0 0 20 20" fill="none" xmlns="http://www.w3.org/2000/svg">
<path d="M3.28824 4.81895C2.28891 4.20172 1 4.92057 1 6.09515V13.9056C1 15.0802 2.2889 15.7991 3.28824 15.1818L9.61101 11.2766C9.76598 11.1809 9.89564 11.064 10 10.9328V13.9056C10 15.0802 11.2889 15.7991 12.2882 15.1818L18.611 11.2766C19.56 10.6904 19.56 9.31035 18.611 8.72419L12.2882 4.81895C11.2889 4.20172 10 4.92057 10 6.09515V9.06794C9.89564 8.93679 9.76598 8.81991 9.61101 8.72419L3.28824 4.81895Z" fill="#0F172A"/>
</svg>

<svg xmlns="http://www.w3.org/2000/svg" viewBox="0 0 20 20" fill="currentColor" aria-hidden="true" data-slot="icon">
  <path d="M3.288 4.818A1.5 1.5 0 0 0 1 6.095v7.81a1.5 1.5 0 0 0 2.288 1.276l6.323-3.905c.155-.096.285-.213.389-.344v2.973a1.5 1.5 0 0 0 2.288 1.276l6.323-3.905a1.5 1.5 0 0 0 0-2.552l-6.323-3.906A1.5 1.5 0 0 0 10 6.095v2.972a1.506 1.506 0 0 0-.389-.343L3.288 4.818Z"/>
</svg>
